src/assets/outline/Cards.svg

<svg width="24" height="24" viewBox="0 0 24 24"  xmlns="http://www.w3.org/2000/svg">
<path d="M19 13.36H2C1.59 13.36 1.25 13.02 1.25 12.61C1.25 12.2 1.59 11.86 2 11.86H19C19.41 11.86 19.75 12.2 19.75 12.61C19.75 13.02 19.41 13.36 19 13.36Z" />
<path d="M15.22 21.75H5.78003C2.35003 21.75 1.25 20.66 1.25 17.27V10.28C1.25 7.58999 1.86002 5.99999 4.96002 5.81999C5.22002 5.80999 5.49003 5.79999 5.78003 5.79999H15.22C18.65 5.79999 19.75 6.88999 19.75 10.28V17.43C19.71 20.7 18.61 21.75 15.22 21.75ZM5.78003 7.29999C5.51003 7.29999 5.26003 7.30999 5.03003 7.31999C3.24003 7.42999 2.75 7.80999 2.75 10.28V17.27C2.75 19.83 3.17003 20.25 5.78003 20.25H15.22C17.8 20.25 18.22 19.85 18.25 17.42V10.28C18.25 7.71999 17.83 7.29999 15.22 7.29999H5.78003Z" />
<path d="M19 18.18C18.81 18.18 18.62 18.11 18.49 17.98C18.34 17.84 18.25 17.64 18.25 17.43V10.28C18.25 7.72 17.83 7.3 15.22 7.3H5.78003C5.51003 7.3 5.26003 7.31 5.03003 7.32C4.83003 7.33 4.62998 7.25 4.47998 7.11C4.32998 6.97 4.25 6.77 4.25 6.56C4.29 3.3 5.39003 2.25 8.78003 2.25H18.22C21.65 2.25 22.75 3.34 22.75 6.73V13.72C22.75 16.41 22.14 18 19.04 18.18C19.03 18.18 19.01 18.18 19 18.18ZM5.78003 5.8H15.22C18.65 5.8 19.75 6.89 19.75 10.28V16.6C20.91 16.39 21.25 15.79 21.25 13.72V6.73C21.25 4.17 20.83 3.75 18.22 3.75H8.78003C6.50003 3.75 5.91003 4.06 5.78003 5.8Z" />
<path d="M6.96027 18.56H5.24023C4.83023 18.56 4.49023 18.22 4.49023 17.81C4.49023 17.4 4.83023 17.06 5.24023 17.06H6.96027C7.37027 17.06 7.71027 17.4 7.71027 17.81C7.71027 18.22 7.38027 18.56 6.96027 18.56Z" />
<path d="M12.5499 18.56H9.10986C8.69986 18.56 8.35986 18.22 8.35986 17.81C8.35986 17.4 8.69986 17.06 9.10986 17.06H12.5499C12.9599 17.06 13.2999 17.4 13.2999 17.81C13.2999 18.22 12.9699 18.56 12.5499 18.56Z" />
</svg>

<?xml version="1.0" encoding="UTF-8"?>
<svg width="24" height="24" viewBox="0 0 24 24" xmlns="http://www.w3.org/2000/svg">
 <path d="m19 13.36h-17c-0.41 0-0.75-0.34-0.75-0.75s0.34-0.75 0.75-0.75h17c0.41 0 0.75 0.34 0.75 0.75s-0.34 0.75-0.75 0.75z"/>
 <path d="m15.22 21.75h-9.44c-3.43 0-4.53-1.09-4.53-4.48v-6.99c0-2.69 0.61002-4.28 3.71-4.46 0.26-0.01 0.53001-0.02 0.82001-0.02h9.44c3.43 0 4.53 1.09 4.53 4.48v7.15c-0.04 3.27-1.14 4.32-4.53 4.32zm-9.44-14.45c-0.27 0-0.52 0.01-0.75 0.02-1.79 0.11-2.28 0.49-2.28 2.96v6.99c0 2.56 0.42003 2.98 3.03 2.98h9.44c2.58 0 3-0.4 3.03-2.83v-7.14c0-2.56-0.42-2.98-3.03-2.98h-9.44z"/>
 <path d="m19 18.18c-0.19 0-0.38-0.07-0.51-0.2-0.15-0.14-0.24-0.34-0.24-0.55v-7.15c0-2.56-0.42-2.98-3.03-2.98h-9.44c-0.27 0-0.52 0.01-0.75 0.02-0.2 0.01-0.40005-0.07-0.55005-0.21s-0.22998-0.34-0.22998-0.55c0.04-3.26 1.14-4.31 4.53-4.31h9.44c3.43 0 4.53 1.09 4.53 4.48v6.99c0 2.69-0.61 4.28-3.71 4.46h-0.04zm-13.22-12.38h9.44c3.43 0 4.53 1.09 4.53 4.48v6.32c1.16-0.21 1.5-0.81 1.5-2.88v-6.99c0-2.56-0.42-2.98-3.03-2.98h-9.44c-2.28 0-2.87 0.31-3 2.05z"/>
 <path d="m6.9603 18.56h-1.72c-0.41 0-0.75-0.34-0.75-0.75s0.34-0.75 0.75-0.75h1.72c0.41 0 0.75 0.34 0.75 0.75s-0.33 0.75-0.75 0.75z"/>
 <path d="m12.55 18.56h-3.44c-0.41 0-0.75-0.34-0.75-0.75s0.34-0.75 0.75-0.75h3.44c0.41 0 0.75 0.34 0.75 0.75s-0.33 0.75-0.75 0.75z"/>
</svg>
